plasma/desktoptheme/icons/phone.svg

<?xml version="1.0" encoding="UTF-8" standalone="no"?>
<svg
   xmlns:osb="http://www.openswatchbook.org/uri/2009/osb"
   xmlns:dc="http://purl.org/dc/elements/1.1/"
   xmlns:cc="http://creativecommons.org/ns#"
   xmlns:rdf="http://www.w3.org/1999/02/22-rdf-syntax-ns#"
   xmlns:svg="http://www.w3.org/2000/svg"
   xmlns="http://www.w3.org/2000/svg"
   xmlns:sodipodi="http://sodipodi.sourceforge.net/DTD/sodipodi-0.dtd"
   xmlns:inkscape="http://www.inkscape.org/namespaces/inkscape"
   id="svg"
   width="100%"
   height="100%"
   version="1.1"
   viewBox="0 0 22 22"
   sodipodi:docname="phone.svg"
   inkscape:version="0.92.4 (5da689c313, 2019-01-14)">
  <metadata
     id="metadata28">
    <rdf:RDF>
      <cc:Work
         rdf:about="">
        <dc:format>image/svg+xml</dc:format>
        <dc:type
           rdf:resource="http://purl.org/dc/dcmitype/StillImage" />
      </cc:Work>
    </rdf:RDF>
  </metadata>
  <sodipodi:namedview
     pagecolor="#ffffff"
     bordercolor="#666666"
     borderopacity="1"
     objecttolerance="10"
     gridtolerance="10"
     guidetolerance="10"
     inkscape:pageopacity="0"
     inkscape:pageshadow="2"
     inkscape:window-width="1366"
     inkscape:window-height="707"
     id="namedview26"
     showgrid="true"
     inkscape:zoom="5.2693537"
     inkscape:cx="25.309717"
     inkscape:cy="-3.0004978"
     inkscape:window-x="0"
     inkscape:window-y="0"
     inkscape:window-maximized="1"
     inkscape:current-layer="svg">
    <inkscape:grid
       type="xygrid"
       id="grid835" />
  </sodipodi:namedview>
  <defs
     id="defs81">
    <style
       id="current-color-scheme"
       type="text/css">
   .ColorScheme-Text { color:#dedede; } .ColorScheme-Highlight { color:#5294e2; } .ColorScheme-ButtonBackground { color:#dedede; }
  </style>
    <style
       id="current-color-scheme-9"
       type="text/css">
   .ColorScheme-Text { color:#dedede; } .ColorScheme-Highlight { color:#5294e2; } .ColorScheme-ButtonBackground { color:#dedede; }
  </style>
    <linearGradient
       id="linearGradient5606"
       osb:paint="solid">
      <stop
         id="stop5608"
         offset="0"
         style="stop-color:currentColor;stop-opacity:1" />
    </linearGradient>
  </defs>
  <g
     id="22-22-phone">
    <rect
       id="rect7689"
       width="22"
       height="22"
       x="0"
       y="0"
       rx="0"
       ry="0"
       style="opacity:0;fill:#111213;fill-opacity:1;stroke:none" />
    <path
       id="path6665"
       class="ColorScheme-Text"
       d="M 7,3 C 6,3 6,4 6,4 v 14 c 0,0 0,1 1,1 h 8 c 1,0 1,-1 1,-1 V 4 c 0,0 0,-1 -1,-1 z m 8,1 V 15 H 7 V 4 Z m -4,12 c 0.552285,0 1,0.447715 1,1 0,0.552285 -0.447715,1 -1,1 -0.552285,0 -1,-0.447715 -1,-1 0,-0.552285 0.447715,-1 1,-1 z"
       style="color:#dedede;display:inline;opacity:1;fill:currentColor;fill-opacity:1;stroke:none;filter:url(#filter7554);enable-background:new"
       inkscape:connector-curvature="0"
       sodipodi:nodetypes="sccssccsscccccsssss" />
  </g>
  <g
     id="phone">
    <rect
       id="rect2988"
       width="32"
       height="32"
       x="0"
       y="-34"
       rx="0"
       ry="0"
       style="opacity:0;fill:#6b727a;fill-opacity:1;stroke:none" />
    <path
       id="path4215"
       class="ColorScheme-Text"
       d="M 10.400391,-30 C 9.0003907,-30 9,-28.5 9,-28.5 v 21 c 0,0 3.907e-4,1.5 1.400391,1.5 H 21.599609 C 22.999609,-6 23,-7.5 23,-7.5 v -21 c 0,0 -3.91e-4,-1.5 -1.400391,-1.5 z M 11,-28 h 10 v 16 H 11 Z m 5,17 c 1.104569,0 2,0.895431 2,2 0,1.1045695 -0.895431,2 -2,2 -1.104569,0 -2,-0.8954305 -2,-2 0,-1.104569 0.895431,-2 2,-2 z"
       style="color:#dedede;display:inline;opacity:1;fill:currentColor;fill-opacity:1;stroke:none;filter:url(#filter7554);enable-background:new"
       inkscape:connector-curvature="0"
       sodipodi:nodetypes="sccssccsscccccsssss" />
  </g>
  <g
     id="22-22-phone-battery">
    <rect
       id="rect4152"
       width="22"
       height="22"
       x="30"
       y="0"
       rx="0"
       ry="0"
       style="opacity:0;fill:#111213;fill-opacity:1;stroke:none" />
    <path
       id="path4154"
       class="ColorScheme-Text"
       d="m 37,3 c -1,0 -1,1 -1,1 v 14 c 0,0 0,1 1,1 h 8 c 1,0 1,-1 1,-1 V 4 c 0,0 0,-1 -1,-1 z m 5,1 h 3 V 15 H 37 V 4 h 3 z m -1,2 -2,4 h 2 v 4 L 43,9 H 41 V 7 Z m 0.300781,10 c 0.552285,0 1,0.447715 1,1 0,0.552285 -0.447715,1 -1,1 -0.552285,0 -1,-0.447715 -1,-1 0,-0.552285 0.447715,-1 1,-1 z"
       style="color:#dedede;display:inline;opacity:1;fill:currentColor;fill-opacity:1;stroke:none;filter:url(#filter7554);enable-background:new"
       inkscape:connector-curvature="0"
       sodipodi:nodetypes="sccssccsscccccccccccccccsssss" />
  </g>
  <g
     id="phone-battery"
     transform="translate(30.000052,0)">
    <rect
       id="rect4164"
       width="32"
       height="32"
       x="0"
       y="-34"
       rx="0"
       ry="0"
       style="opacity:0;fill:#6b727a;fill-opacity:1;stroke:none" />
    <path
       id="path4166"
       class="ColorScheme-Text"
       d="M 40.400391,-30 C 39.000391,-30 39,-28.5 39,-28.5 v 21 c 0,0 3.91e-4,1.5 1.400391,1.5 H 51.599609 C 52.999609,-6 53,-7.5 53,-7.5 v -21 c 0,0 -3.91e-4,-1.5 -1.400391,-1.5 z M 41,-28 h 5 5 v 16 H 41 Z m 5,2 -3,6 h 3 v 6 l 3,-7.5 h -3 z m 0,15 c 1.104569,0 2,0.895431 2,2 0,1.1045695 -0.895431,2 -2,2 -1.104569,0 -2,-0.8954305 -2,-2 0,-1.104569 0.895431,-2 2,-2 z"
       transform="translate(-30.000052)"
       style="color:#dedede;display:inline;opacity:1;fill:currentColor;fill-opacity:1;stroke:none;filter:url(#filter7554);enable-background:new"
       inkscape:connector-curvature="0"
       sodipodi:nodetypes="sccssccsscccccccccccccsssss" />
  </g>
  <g
     id="16-16-phone-battery">
    <rect
       id="rect4253"
       width="16"
       height="16"
       x="33"
       y="26"
       rx="0"
       ry="0"
       style="opacity:0;fill:#6b727a;fill-opacity:1;stroke:none" />
    <path
       id="path4267"
       class="ColorScheme-Text"
       d="M 37.798828,28 C 36.998828,28 37,28.75 37,28.75 v 10.5 c 0,0 -0.0012,0.75 0.798828,0.75 h 6.400391 C 44.999219,40 45,39.25 45,39.25 V 28.75 C 45,28.75 44.999158,28 44.199219,28 Z M 38,29 h 3 3 v 7 h -3 -3 z m 3,7 1.5,-3.75 H 41 V 30 l -1.5,3 H 41 Z m 0,1 c 0.552285,0 1,0.447715 1,1 0,0.552285 -0.447715,1 -1,1 -0.552285,0 -1,-0.447715 -1,-1 0,-0.552285 0.447715,-1 1,-1 z"
       style="color:#dedede;display:inline;opacity:1;fill:currentColor;fill-opacity:1;stroke:none;filter:url(#filter7554);enable-background:new"
       inkscape:connector-curvature="0"
       sodipodi:nodetypes="sccssccssccccccccccccccsssss" />
  </g>
  <g
     id="16-16-phone">
    <rect
       id="rect2996"
       width="16"
       height="16"
       x="0"
       y="26"
       rx="0"
       ry="0"
       style="opacity:0;fill:#5f666d;fill-opacity:0.80740739;stroke:none" />
    <path
       id="path4279"
       class="ColorScheme-Text"
       d="M 4.798828,28 C 3.998828,28 4,28.75 4,28.75 v 10.5 C 4,39.25 3.9988,40 4.798828,40 h 6.400391 C 11.999219,40 12,39.25 12,39.25 V 28.75 C 12,28.75 11.999158,28 11.199219,28 Z M 5,29 h 3 3 v 7 H 5 Z m 3,8 c 0.552285,0 1,0.447715 1,1 0,0.552285 -0.447715,1 -1,1 -0.552285,0 -1,-0.447715 -1,-1 0,-0.552285 0.447715,-1 1,-1 z"
       style="color:#dedede;display:inline;opacity:1;fill:currentColor;fill-opacity:1;stroke:none;filter:url(#filter7554);enable-background:new"
       inkscape:connector-curvature="0"
       sodipodi:nodetypes="sccssccssccccccsssss" />
  </g>
</svg>

<svg id="svg" version="1.1" viewBox="0 0 22 22" xmlns="http://www.w3.org/2000/svg" xmlns:osb="http://www.openswatchbook.org/uri/2009/osb">
 <defs>
  <style id="current-color-scheme" type="text/css">.ColorScheme-Text { color:#dedede; } .ColorScheme-Highlight { color:#5294e2; }</style>
 </defs>
 <g id="22-22-phone">
  <rect width="22" height="22" rx="0" ry="0" opacity="0"/>
  <path class="ColorScheme-Text" d="m7 3c-1 0-1 1-1 1v14s0 1 1 1h8c1 0 1-1 1-1v-14s0-1-1-1zm8 1v11h-8v-11zm-4 12c0.55228 0 1 0.44772 1 1s-0.44772 1-1 1-1-0.44772-1-1 0.44772-1 1-1z" color="#dedede" enable-background="new" fill="currentColor" filter="url(#filter7554)"/>
 </g>
 <g id="phone">
  <rect y="-34" width="32" height="32" rx="0" ry="0" opacity="0"/>
  <path class="ColorScheme-Text" d="m10.4-30c-1.4 0-1.4004 1.5-1.4004 1.5v21s3.907e-4 1.5 1.4004 1.5h11.199c1.4 0 1.4004-1.5 1.4004-1.5v-21s-3.91e-4 -1.5-1.4004-1.5zm0.59961 2h10v16h-10zm5 17c1.1046 0 2 0.89543 2 2 0 1.1046-0.89543 2-2 2s-2-0.89543-2-2c0-1.1046 0.89543-2 2-2z" color="#dedede" enable-background="new" fill="currentColor" filter="url(#filter7554)"/>
 </g>
 <g id="22-22-phone-battery">
  <rect x="30" width="22" height="22" rx="0" ry="0" opacity="0"/>
  <path class="ColorScheme-Text" d="m37 3c-1 0-1 1-1 1v14s0 1 1 1h8c1 0 1-1 1-1v-14s0-1-1-1zm5 1h3v11h-8v-11h3zm-1 2-2 4h2v4l2-5h-2v-2zm0.30078 10c0.55228 0 1 0.44772 1 1s-0.44772 1-1 1-1-0.44772-1-1 0.44772-1 1-1z" color="#dedede" enable-background="new" fill="currentColor" filter="url(#filter7554)"/>
 </g>
 <g id="phone-battery" transform="translate(30)">
  <rect y="-34" width="32" height="32" rx="0" ry="0" opacity="0"/>
  <path class="ColorScheme-Text" transform="translate(-30)" d="m40.4-30c-1.4 0-1.4004 1.5-1.4004 1.5v21s3.91e-4 1.5 1.4004 1.5h11.199c1.4 0 1.4004-1.5 1.4004-1.5v-21s-3.91e-4 -1.5-1.4004-1.5zm0.59961 2h10v16h-10zm5 2-3 6h3v6l3-7.5h-3zm0 15c1.1046 0 2 0.89543 2 2 0 1.1046-0.89543 2-2 2s-2-0.89543-2-2c0-1.1046 0.89543-2 2-2z" color="#dedede" enable-background="new" fill="currentColor" filter="url(#filter7554)"/>
 </g>
 <g id="16-16-phone-battery">
  <rect x="33" y="26" width="16" height="16" rx="0" ry="0" opacity="0"/>
  <path class="ColorScheme-Text" d="m37.799 28c-0.8 0-0.79883 0.75-0.79883 0.75v10.5s-0.0012 0.75 0.79883 0.75h6.4004c0.8 0 0.80078-0.75 0.80078-0.75v-10.5s-8.42e-4 -0.75-0.80078-0.75zm0.20117 1h6v7h-6zm3 7 1.5-3.75h-1.5v-2.25l-1.5 3h1.5zm0 1c0.55228 0 1 0.44772 1 1s-0.44772 1-1 1-1-0.44772-1-1 0.44772-1 1-1z" color="#dedede" enable-background="new" fill="currentColor" filter="url(#filter7554)"/>
 </g>
 <g id="16-16-phone">
  <rect y="26" width="16" height="16" rx="0" ry="0" opacity="0"/>
  <path class="ColorScheme-Text" d="m4.7988 28c-0.8 0-0.79883 0.75-0.79883 0.75v10.5s-0.0012 0.75 0.79883 0.75h6.4004c0.8 0 0.80078-0.75 0.80078-0.75v-10.5s-8.42e-4 -0.75-0.80078-0.75zm0.20117 1h6v7h-6zm3 8c0.55228 0 1 0.44772 1 1s-0.44772 1-1 1-1-0.44772-1-1 0.44772-1 1-1z" color="#dedede" enable-background="new" fill="currentColor" filter="url(#filter7554)"/>
 </g>
</svg>
